src/assets/images/bg-shorten-desktop.svg

<svg xmlns="http://www.w3.org/2000/svg" width="1110" height="168"><path fill="#4B3F6B" fill-rule="evenodd" d="M647-93.924c0 52.724 15.5 90.486 73 114.877 57.5 24.391 113.055 2.134 168.786 14.894 55.731 12.76 55.731 94.962 108.214 145.549s163.142 62.874 253.12 11.552c89.976-51.322 130.765-171.152 103.88-241.807C1327.115-119.515 1275.593-184 1027-184c-248.593 0-380 37.353-380 90.076zm-781 213c0 52.724 15.5 90.486 73 114.877 57.5 24.391 113.055 2.134 168.786 14.894 55.731 12.76 55.731 94.962 108.214 145.549s163.142 62.874 253.12 11.552C559.095 354.626 599.884 234.796 573 164.141 546.115 93.485 494.593 29 246 29c-248.593 0-380 37.353-380 90.076z"/></svg>

<svg width="1110" height="168" viewBox="0 0 1110 168" fill="none" xmlns="http://www.w3.org/2000/svg">
<g clip-path="url(#clip0)">
<rect width="1110" height="168" fill="#3A3053"/>
<path fill-rule="evenodd" clip-rule="evenodd" d="M647 -93.924C647 -41.2 662.5 -3.438 720 20.953C777.5 45.344 833.055 23.087 888.786 35.847C944.517 48.607 944.517 130.809 997 181.396C1049.48 231.983 1160.14 244.27 1250.12 192.948C1340.1 141.626 1380.89 21.796 1354 -48.859C1327.11 -119.515 1275.59 -184 1027 -184C778.407 -184 647 -146.647 647 -93.924ZM-134 119.076C-134 171.8 -118.5 209.562 -61 233.953C-3.5 258.344 52.055 236.087 107.786 248.847C163.517 261.607 163.517 343.809 216 394.396C268.483 444.983 379.142 457.27 469.12 405.948C559.095 354.626 599.884 234.796 573 164.141C546.115 93.485 494.593 29 246 29C-2.593 29 -134 66.353 -134 119.076Z" fill="#4B3F6B"/>
</g>
<defs>
<clipPath id="clip0">
<rect width="1110" height="168" fill="white"/>
</clipPath>
</defs>
</svg>
